flaticon/programming-line/virus.svg

<svg xmlns="http://www.w3.org/2000/svg" width="32" height="32" viewBox="0 0 24 24">
    <path d="M1.855469 4.835938C1.949219 4.835938 2.039062 4.800781 2.105469 4.734375 2.167969 4.667969 2.207031 4.578125 2.207031 4.484375 2.207031 4.394531 2.167969 4.300781 2.105469 4.238281 2.039062 4.171875 1.949219 4.132812 1.855469 4.132812 1.761719 4.132812 1.671875 4.171875 1.605469 4.238281 1.539062 4.300781 1.503906 4.394531 1.503906 4.484375 1.503906 4.578125 1.539062 4.667969 1.605469 4.734375 1.671875 4.800781 1.761719 4.835938 1.855469 4.835938zM2.980469 4.835938C3.074219 4.835938 3.167969 4.800781 3.230469 4.734375 3.296875 4.667969 3.335938 4.578125 3.335938 4.484375 3.335938 4.394531 3.296875 4.300781 3.230469 4.238281 3.167969 4.171875 3.074219 4.132812 2.980469 4.132812 2.890625 4.132812 2.796875 4.171875 2.734375 4.238281 2.667969 4.300781 2.628906 4.394531 2.628906 4.484375 2.628906 4.578125 2.667969 4.667969 2.734375 4.734375 2.796875 4.800781 2.890625 4.835938 2.980469 4.835938zM4.109375 4.835938C4.203125 4.835938 4.292969 4.800781 4.359375 4.734375 4.425781 4.667969 4.460938 4.578125 4.460938 4.484375 4.460938 4.394531 4.425781 4.300781 4.359375 4.238281 4.292969 4.171875 4.203125 4.132812 4.109375 4.132812 4.015625 4.132812 3.925781 4.171875 3.859375 4.238281 3.792969 4.300781 3.757812 4.394531 3.757812 4.484375 3.757812 4.578125 3.792969 4.667969 3.859375 4.734375 3.925781 4.800781 4.015625 4.835938 4.109375 4.835938zM5.613281 4.835938L19.890625 4.835938C20.085938 4.835938 20.242188 4.679688 20.242188 4.484375 20.242188 4.289062 20.085938 4.132812 19.890625 4.132812L5.613281 4.132812C5.417969 4.132812 5.261719 4.289062 5.261719 4.484375 5.261719 4.679688 5.417969 4.835938 5.613281 4.835938zM21.394531 4.835938L22.144531 4.835938C22.339844 4.835938 22.496094 4.679688 22.496094 4.484375 22.496094 4.289062 22.339844 4.132812 22.144531 4.132812L21.394531 4.132812C21.199219 4.132812 21.042969 4.289062 21.042969 4.484375 21.042969 4.679688 21.199219 4.835938 21.394531 4.835938zM12 15.359375C12.195312 15.359375 12.351562 15.199219 12.351562 15.007812L12.351562 14.253906C12.351562 14.058594 12.195312 13.902344 12 13.902344 11.804688 13.902344 11.648438 14.058594 11.648438 14.253906L11.648438 15.007812C11.648438 15.199219 11.804688 15.359375 12 15.359375zM9.726562 14.335938C9.828125 14.398438 9.9375 14.425781 10.046875 14.425781 10.136719 14.425781 10.230469 14.40625 10.316406 14.363281L11.179688 13.929688C11.4375 13.804688 11.601562 13.515625 11.601562 13.199219 11.601562 12.757812 11.28125 12.398438 10.890625 12.398438L10.046875 12.398438C9.6875 12.398438 9.394531 12.726562 9.394531 13.128906L9.394531 13.699219C9.394531 13.964844 9.523438 14.207031 9.726562 14.335938zM10.097656 13.128906C10.097656 13.117188 10.097656 13.109375 10.101562 13.105469L10.871094 13.105469C10.878906 13.117188 10.894531 13.148438 10.894531 13.199219 10.894531 13.257812 10.871094 13.296875 10.867188 13.300781L10.097656 13.683594zM12.820312 13.929688L13.683594 14.363281C13.769531 14.40625 13.863281 14.425781 13.953125 14.425781 14.0625 14.425781 14.175781 14.398438 14.273438 14.335938 14.476562 14.207031 14.605469 13.964844 14.605469 13.699219L14.605469 13.128906C14.605469 12.726562 14.3125 12.398438 13.953125 12.398438L13.109375 12.398438C12.71875 12.398438 12.398438 12.757812 12.398438 13.199219 12.398438 13.515625 12.5625 13.804688 12.820312 13.929688zM13.128906 13.105469L13.898438 13.105469C13.902344 13.109375 13.902344 13.117188 13.902344 13.128906L13.902344 13.683594 13.136719 13.300781C13.128906 13.296875 13.105469 13.257812 13.105469 13.199219 13.105469 13.148438 13.121094 13.117188 13.128906 13.105469zM13.128906 13.105469"/>
    <path d="M 18.726562 11.511719 C 19.242188 11.191406 19.402344 10.511719 19.082031 9.992188 C 18.933594 9.757812 18.707031 9.585938 18.441406 9.511719 C 18.4375 9.511719 18.433594 9.503906 18.433594 9.503906 C 18.484375 9.230469 18.433594 8.953125 18.289062 8.714844 C 17.964844 8.199219 17.285156 8.039062 16.769531 8.359375 C 16.515625 8.515625 16.34375 8.757812 16.273438 9.046875 C 16.234375 9.214844 16.234375 9.386719 16.273438 9.550781 L 15.222656 10.203125 C 14.46875 9.253906 13.304688 8.640625 12 8.640625 C 10.695312 8.640625 9.53125 9.253906 8.777344 10.203125 L 7.726562 9.550781 C 7.828125 9.101562 7.644531 8.617188 7.230469 8.359375 C 6.980469 8.203125 6.6875 8.15625 6.398438 8.222656 C 6.113281 8.289062 5.867188 8.464844 5.710938 8.714844 C 5.566406 8.953125 5.515625 9.230469 5.566406 9.503906 C 5.566406 9.503906 5.5625 9.511719 5.558594 9.511719 C 5.292969 9.585938 5.066406 9.757812 4.917969 9.992188 C 4.597656 10.511719 4.757812 11.191406 5.273438 11.511719 C 5.527344 11.667969 5.820312 11.714844 6.109375 11.648438 C 6.277344 11.609375 6.429688 11.535156 6.5625 11.425781 L 7.917969 12.269531 C 7.898438 12.425781 7.890625 12.589844 7.890625 12.75 L 7.890625 13.640625 C 7.890625 13.980469 7.984375 14.308594 8.152344 14.589844 L 6.558594 15.582031 C 6.207031 15.285156 5.6875 15.238281 5.273438 15.492188 C 5.023438 15.648438 4.851562 15.894531 4.78125 16.179688 C 4.714844 16.464844 4.765625 16.761719 4.917969 17.011719 C 5.066406 17.25 5.292969 17.417969 5.558594 17.492188 C 5.5625 17.496094 5.566406 17.5 5.566406 17.503906 C 5.515625 17.773438 5.566406 18.054688 5.710938 18.289062 C 5.867188 18.539062 6.113281 18.714844 6.398438 18.78125 C 6.484375 18.800781 6.566406 18.8125 6.652344 18.8125 C 6.855469 18.8125 7.054688 18.753906 7.230469 18.644531 C 7.644531 18.390625 7.828125 17.902344 7.722656 17.457031 L 8.851562 16.757812 C 8.929688 16.886719 9.03125 17.007812 9.148438 17.109375 L 10.285156 18.105469 C 10.773438 18.535156 11.386719 18.746094 12 18.746094 C 12.613281 18.746094 13.226562 18.535156 13.714844 18.105469 L 14.851562 17.109375 C 14.96875 17.007812 15.070312 16.886719 15.148438 16.757812 L 16.277344 17.457031 C 16.171875 17.902344 16.355469 18.390625 16.769531 18.644531 C 16.945312 18.753906 17.144531 18.8125 17.347656 18.8125 C 17.433594 18.8125 17.515625 18.800781 17.601562 18.78125 C 17.886719 18.714844 18.132812 18.539062 18.289062 18.289062 C 18.433594 18.054688 18.484375 17.773438 18.433594 17.503906 C 18.433594 17.5 18.4375 17.496094 18.441406 17.492188 C 18.707031 17.417969 18.933594 17.25 19.082031 17.011719 C 19.402344 16.496094 19.242188 15.8125 18.726562 15.492188 C 18.472656 15.339844 18.179688 15.289062 17.890625 15.355469 C 17.722656 15.394531 17.570312 15.472656 17.4375 15.578125 L 15.847656 14.589844 C 16.015625 14.308594 16.109375 13.980469 16.109375 13.640625 L 16.109375 12.75 C 16.109375 12.589844 16.101562 12.425781 16.082031 12.269531 L 17.441406 11.425781 C 17.792969 11.71875 18.3125 11.769531 18.726562 11.511719 Z M 12 9.347656 C 13.667969 9.347656 15.0625 10.554688 15.347656 12.140625 C 15.351562 12.148438 15.351562 12.152344 15.351562 12.15625 C 15.386719 12.351562 15.40625 12.550781 15.40625 12.75 L 15.40625 13.640625 C 15.40625 13.945312 15.285156 14.226562 15.082031 14.4375 C 15.078125 14.441406 15.074219 14.445312 15.070312 14.449219 C 14.96875 14.550781 14.847656 14.636719 14.707031 14.695312 L 12.988281 15.433594 C 12.859375 15.488281 12.773438 15.617188 12.773438 15.757812 L 12.773438 16.132812 C 12.773438 16.144531 12.765625 16.15625 12.75 16.15625 L 11.25 16.15625 C 11.234375 16.15625 11.226562 16.144531 11.226562 16.132812 L 11.226562 15.757812 C 11.226562 15.617188 11.140625 15.488281 11.011719 15.433594 L 9.292969 14.695312 C 9.164062 14.640625 9.046875 14.5625 8.949219 14.46875 C 8.933594 14.449219 8.914062 14.429688 8.894531 14.414062 C 8.707031 14.203125 8.59375 13.929688 8.59375 13.640625 L 8.59375 12.75 C 8.59375 12.558594 8.613281 12.367188 8.644531 12.183594 C 8.648438 12.164062 8.652344 12.148438 8.652344 12.128906 C 8.738281 11.671875 8.914062 11.246094 9.164062 10.871094 C 9.164062 10.867188 9.167969 10.863281 9.167969 10.863281 C 9.171875 10.859375 9.171875 10.859375 9.171875 10.855469 C 9.785156 9.945312 10.824219 9.347656 12 9.347656 Z M 6.679688 10.671875 C 6.601562 10.621094 6.507812 10.605469 6.414062 10.628906 C 6.324219 10.648438 6.246094 10.707031 6.195312 10.785156 C 6.140625 10.875 6.050781 10.9375 5.949219 10.964844 C 5.84375 10.988281 5.738281 10.96875 5.648438 10.914062 C 5.460938 10.796875 5.402344 10.550781 5.519531 10.363281 C 5.570312 10.277344 5.652344 10.21875 5.75 10.191406 C 6.101562 10.089844 6.324219 9.730469 6.257812 9.371094 C 6.238281 9.273438 6.257812 9.171875 6.3125 9.085938 C 6.367188 8.996094 6.457031 8.933594 6.558594 8.910156 C 6.664062 8.886719 6.769531 8.902344 6.859375 8.957031 C 7.046875 9.074219 7.105469 9.320312 6.988281 9.507812 C 6.886719 9.671875 6.9375 9.890625 7.101562 9.992188 L 8.386719 10.792969 C 8.261719 11.027344 8.15625 11.277344 8.074219 11.535156 Z M 7.101562 17.011719 C 6.9375 17.113281 6.886719 17.332031 6.988281 17.496094 C 7.105469 17.683594 7.046875 17.929688 6.859375 18.046875 C 6.769531 18.101562 6.664062 18.121094 6.558594 18.097656 C 6.457031 18.074219 6.367188 18.007812 6.3125 17.917969 C 6.257812 17.832031 6.238281 17.730469 6.257812 17.632812 C 6.324219 17.273438 6.101562 16.914062 5.75 16.816406 C 5.652344 16.789062 5.570312 16.726562 5.519531 16.640625 C 5.460938 16.550781 5.445312 16.445312 5.46875 16.339844 C 5.492188 16.234375 5.554688 16.148438 5.648438 16.09375 C 5.832031 15.976562 6.082031 16.035156 6.195312 16.21875 C 6.300781 16.386719 6.515625 16.4375 6.683594 16.335938 L 8.632812 15.121094 C 8.636719 15.125 8.640625 15.128906 8.640625 15.128906 L 8.640625 15.996094 C 8.640625 16.015625 8.644531 16.035156 8.644531 16.054688 Z M 14.390625 16.582031 L 13.253906 17.574219 C 12.539062 18.199219 11.460938 18.199219 10.746094 17.574219 L 9.609375 16.582031 C 9.441406 16.433594 9.347656 16.222656 9.347656 15.996094 L 9.347656 15.488281 L 10.519531 15.988281 L 10.519531 16.132812 C 10.519531 16.535156 10.847656 16.859375 11.25 16.859375 L 12.75 16.859375 C 13.152344 16.859375 13.480469 16.535156 13.480469 16.132812 L 13.480469 15.988281 L 14.652344 15.488281 L 14.652344 15.996094 C 14.652344 16.222656 14.558594 16.433594 14.390625 16.582031 Z M 17.585938 16.378906 C 17.675781 16.355469 17.753906 16.300781 17.804688 16.21875 C 17.859375 16.128906 17.949219 16.066406 18.050781 16.042969 C 18.15625 16.019531 18.261719 16.035156 18.351562 16.09375 C 18.539062 16.207031 18.597656 16.453125 18.480469 16.640625 C 18.429688 16.726562 18.347656 16.789062 18.25 16.816406 C 17.898438 16.914062 17.675781 17.273438 17.742188 17.632812 C 17.761719 17.730469 17.742188 17.832031 17.6875 17.917969 C 17.632812 18.007812 17.542969 18.074219 17.441406 18.097656 C 17.335938 18.121094 17.230469 18.101562 17.140625 18.046875 C 16.953125 17.929688 16.894531 17.683594 17.011719 17.496094 C 17.113281 17.332031 17.0625 17.113281 16.898438 17.011719 L 15.355469 16.054688 C 15.355469 16.035156 15.359375 16.015625 15.359375 15.996094 L 15.359375 15.128906 C 15.359375 15.128906 15.363281 15.125 15.367188 15.121094 L 17.320312 16.335938 C 17.398438 16.382812 17.492188 16.398438 17.585938 16.378906 Z M 15.925781 11.535156 C 15.84375 11.277344 15.738281 11.027344 15.613281 10.792969 L 16.898438 9.992188 C 16.976562 9.945312 17.035156 9.867188 17.054688 9.773438 C 17.074219 9.683594 17.058594 9.585938 17.011719 9.507812 C 16.953125 9.417969 16.9375 9.3125 16.960938 9.207031 C 16.984375 9.101562 17.050781 9.015625 17.140625 8.957031 C 17.328125 8.84375 17.574219 8.898438 17.6875 9.085938 C 17.742188 9.171875 17.761719 9.273438 17.742188 9.371094 C 17.675781 9.730469 17.898438 10.089844 18.25 10.191406 C 18.347656 10.21875 18.429688 10.277344 18.480469 10.363281 C 18.597656 10.550781 18.539062 10.796875 18.351562 10.914062 C 18.167969 11.03125 17.917969 10.972656 17.804688 10.785156 C 17.699219 10.621094 17.484375 10.570312 17.320312 10.671875 Z M 15.925781 11.535156"/>
    <path d="M 22.144531 2.628906 L 1.855469 2.628906 C 0.832031 2.628906 0 3.460938 0 4.484375 L 0 19.515625 C 0 20.539062 0.832031 21.371094 1.855469 21.371094 L 22.144531 21.371094 C 23.167969 21.371094 24 20.539062 24 19.515625 L 24 4.484375 C 24 3.460938 23.167969 2.628906 22.144531 2.628906 Z M 1.855469 3.335938 L 22.144531 3.335938 C 22.777344 3.335938 23.296875 3.851562 23.296875 4.484375 L 23.296875 5.636719 L 0.703125 5.636719 L 0.703125 4.484375 C 0.703125 3.851562 1.222656 3.335938 1.855469 3.335938 Z M 22.144531 20.664062 L 1.855469 20.664062 C 1.222656 20.664062 0.703125 20.148438 0.703125 19.515625 L 0.703125 6.339844 L 23.296875 6.339844 L 23.296875 19.515625 C 23.296875 20.148438 22.777344 20.664062 22.144531 20.664062 Z M 22.144531 20.664062"/>
</svg>

<svg xmlns="http://www.w3.org/2000/svg" width="32" height="32" viewBox="0 0 24 24">
    <path d="M1.855 4.836a.351.351 0 0 0 .25-.102.369.369 0 0 0 .102-.25.355.355 0 0 0-.352-.352.355.355 0 0 0-.351.352c0 .094.035.184.101.25a.351.351 0 0 0 .25.102zm0 0M2.98 4.836a.355.355 0 0 0 .355-.352c0-.09-.038-.183-.105-.246a.346.346 0 0 0-.496 0 .346.346 0 0 0 0 .496.342.342 0 0 0 .246.102zm0 0M4.11 4.836a.351.351 0 0 0 .25-.102.351.351 0 0 0 .1-.25.355.355 0 0 0-.352-.352.355.355 0 0 0-.35.352c0 .094.035.184.101.25a.351.351 0 0 0 .25.102zm0 0M5.613 4.836h14.278a.35.35 0 0 0 .351-.352.35.35 0 0 0-.351-.351H5.613a.35.35 0 0 0-.351.351.35.35 0 0 0 .351.352zm0 0M21.395 4.836h.75a.35.35 0 0 0 .351-.352.35.35 0 0 0-.351-.351h-.75a.35.35 0 0 0-.352.351.35.35 0 0 0 .352.352zm0 0M12 15.36c.195 0 .352-.16.352-.352v-.754a.35.35 0 0 0-.352-.352.35.35 0 0 0-.352.352v.754c0 .191.157.351.352.351zm0 0M9.727 14.336a.604.604 0 0 0 .59.027l.863-.433c.258-.125.422-.414.422-.73 0-.442-.32-.802-.711-.802h-.844c-.36 0-.652.329-.652.73v.571c0 .266.128.508.332.637zm.37-1.207c0-.012 0-.02.005-.024h.77a.172.172 0 0 1 .023.094.181.181 0 0 1-.028.102l-.77.383zm0 0M12.82 13.93l.864.433c.086.043.18.063.27.063.108 0 .222-.028.32-.09a.752.752 0 0 0 .331-.637v-.57c0-.402-.293-.73-.652-.73h-.844c-.39 0-.71.359-.71.8 0 .317.164.606.421.73zm.309-.825h.77c.003.004.003.012.003.024v.555l-.765-.383c-.008-.004-.032-.043-.032-.102 0-.05.016-.082.024-.094zm0 0"/>
    <path d="M18.727 11.512a1.106 1.106 0 0 0-.286-2c-.003 0-.007-.008-.007-.008.05-.274 0-.55-.145-.79a1.107 1.107 0 0 0-2.016.837l-1.05.652A4.111 4.111 0 0 0 12 8.641a4.111 4.111 0 0 0-3.223 1.562l-1.05-.652a1.113 1.113 0 0 0-.497-1.192 1.104 1.104 0 0 0-1.52.355c-.144.24-.194.516-.144.79 0 0-.003.008-.007.008a1.106 1.106 0 1 0 1.004 1.914l1.355.844c-.02.156-.027.32-.027.48v.89c0 .34.093.669.261.95l-1.593.992a1.103 1.103 0 0 0-1.286-.09 1.12 1.12 0 0 0-.492.688 1.098 1.098 0 0 0 .777 1.313c.005.003.008.007.008.01-.05.27 0 .552.145.786a1.129 1.129 0 0 0 .941.523c.203 0 .403-.058.578-.167a1.1 1.1 0 0 0 .493-1.188l1.129-.7c.078.13.18.25.296.352l1.137.996c.488.43 1.102.641 1.715.641s1.227-.21 1.715-.64l1.137-.997c.117-.101.218-.222.296-.351l1.13.699a1.1 1.1 0 0 0 .492 1.188 1.093 1.093 0 0 0 .832.136c.285-.066.53-.242.687-.492.145-.234.195-.516.145-.785 0-.004.003-.008.007-.012.266-.074.493-.242.641-.48.32-.516.16-1.2-.355-1.52a1.121 1.121 0 0 0-1.29.086l-1.59-.988c.169-.281.262-.61.262-.95v-.89c0-.16-.007-.324-.027-.48l1.36-.844c.351.293.87.344 1.285.086zM12 9.348a3.406 3.406 0 0 1 3.352 2.808c.035.196.054.395.054.594v.89c0 .305-.12.587-.324.797l-.012.012a1.127 1.127 0 0 1-.363.246l-1.719.739a.355.355 0 0 0-.215.324v.375c0 .012-.007.023-.023.023h-1.5c-.016 0-.023-.011-.023-.023v-.375c0-.14-.086-.27-.215-.324l-1.719-.739a1.143 1.143 0 0 1-.398-.28c-.188-.212-.301-.485-.301-.774v-.891c0-.191.02-.383.05-.566.004-.02.008-.036.008-.055.086-.457.262-.883.512-1.258 0-.004.004-.008.004-.008.004-.004.004-.004.004-.008A3.406 3.406 0 0 1 12 9.348zm-5.32 1.324a.355.355 0 0 0-.484.113.41.41 0 0 1-.247.18.4.4 0 0 1-.2-.773.724.724 0 0 0 .509-.82c-.02-.099 0-.2.054-.286a.403.403 0 0 1 .547-.129.4.4 0 0 1 .13.55.353.353 0 0 0 .113.485l1.285.801c-.125.234-.23.484-.313.742zm.422 6.34a.353.353 0 0 0-.114.484.4.4 0 0 1-.43.602.396.396 0 0 1-.245-.18.388.388 0 0 1-.055-.285.717.717 0 0 0-.508-.817.387.387 0 0 1-.23-.175.387.387 0 0 1-.051-.301.373.373 0 0 1 .18-.246.398.398 0 0 1 .546.125c.106.168.32.218.489.117l1.949-1.215.008.008v.867c0 .02.004.04.004.059zm7.289-.43l-1.137.992a1.911 1.911 0 0 1-2.508 0l-1.137-.992a.776.776 0 0 1-.261-.586v-.508l1.172.5v.145c0 .402.328.726.73.726h1.5c.402 0 .73-.324.73-.726v-.145l1.172-.5v.508a.776.776 0 0 1-.261.586zm3.195-.203a.361.361 0 0 0 .219-.16.39.39 0 0 1 .246-.176.387.387 0 0 1 .3.05c.188.114.247.36.13.548a.387.387 0 0 1-.231.175.717.717 0 0 0-.508.817c.02.097 0 .199-.055.285a.396.396 0 0 1-.246.18.4.4 0 0 1-.43-.602.353.353 0 0 0-.113-.484l-1.543-.957c0-.02.004-.04.004-.059v-.867l.008-.008 1.953 1.215a.367.367 0 0 0 .266.043zm-1.66-4.844a4.448 4.448 0 0 0-.313-.742l1.285-.8a.336.336 0 0 0 .157-.22.37.37 0 0 0-.043-.265.387.387 0 0 1-.051-.301.398.398 0 0 1 .727-.121c.054.086.074.187.054.285a.724.724 0 0 0 .508.82.4.4 0 0 1 .102.723.395.395 0 0 1-.547-.129.354.354 0 0 0-.485-.113zm0 0"/>
    <path d="M22.145 2.629H1.855A1.857 1.857 0 0 0 0 4.484v15.032c0 1.023.832 1.855 1.855 1.855h20.29A1.857 1.857 0 0 0 24 19.516V4.484a1.857 1.857 0 0 0-1.855-1.855zm-20.29.707h20.29c.632 0 1.152.516 1.152 1.148v1.153H.703V4.484c0-.632.52-1.148 1.152-1.148zm20.29 17.328H1.855a1.154 1.154 0 0 1-1.152-1.148V6.34h22.594v13.176c0 .632-.52 1.148-1.152 1.148zm0 0"/>
</svg>
